storage/app/icons/phosphoricons/light/microsoft-outlook-logo-light.svg

<svg xmlns="http://www.w3.org/2000/svg" fill="currentColor" viewBox="0 0 256 256"><path d="M118 128a30 30 0 1 0-30 30 30 30 0 0 0 30-30m-48 0a18 18 0 1 1 18 18 18 18 0 0 1-18-18m154-22h-18V40a6 6 0 0 0-6-6h-96a6 6 0 0 0-6 6v26H40a14 14 0 0 0-14 14v96a14 14 0 0 0 14 14h34v18a14 14 0 0 0 14 14h128a14 14 0 0 0 14-14v-96a6 6 0 0 0-6-6m-61.75 58L218 123.73v80.54ZM110 46h84v80.27l-42 30.33-2-1.45V80a14 14 0 0 0-14-14h-26ZM38 176V80a2 2 0 0 1 2-2h96a2 2 0 0 1 2 2v96a2 2 0 0 1-2 2H40a2 2 0 0 1-2-2m48 32v-18h50a14 14 0 0 0 14-14v-6l55.44 40H88a2 2 0 0 1-2-2"/></svg>

<svg xmlns="http://www.w3.org/2000/svg" viewBox="0 0 256 256" fill="currentColor"><path d="M118,128a30,30,0,1,0-30,30A30,30,0,0,0,118,128Zm-48,0a18,18,0,1,1,18,18A18,18,0,0,1,70,128Zm154-22H206V40a6,6,0,0,0-6-6H104a6,6,0,0,0-6,6V66H40A14,14,0,0,0,26,80v96a14,14,0,0,0,14,14H74v18a14,14,0,0,0,14,14H216a14,14,0,0,0,14-14V112A6,6,0,0,0,224,106Zm-61.75,58L218,123.73v80.54ZM110,46h84v80.27L152,156.6l-2-1.45V80a14,14,0,0,0-14-14H110ZM38,176V80a2,2,0,0,1,2-2h96a2,2,0,0,1,2,2v96a2,2,0,0,1-2,2H40A2,2,0,0,1,38,176Zm48,32V190h50a14,14,0,0,0,14-14v-6l55.44,40H88A2,2,0,0,1,86,208Z"/></svg>
